assets/sonr-icons/data-sharing.svg

<svg xmlns="http://www.w3.org/2000/svg" width="24" height="24" fill="none" viewBox="0 0 24 24"><path fill="#000" d="M20.52 3.87005C19.696 2.17605 17.986 1.02905 16.01 1.02905C13.983 1.02905 12.238 2.23505 11.453 3.96905L11.44 4.00005H6.99999C5.34299 4.00005 3.99999 5.34305 3.99999 7.00005V11.0001C3.99999 11.5521 4.44799 12.0001 4.99999 12.0001C5.55199 12.0001 5.99999 11.5521 5.99999 11.0001V7.00005C5.99999 6.44805 6.44799 6.00005 6.99999 6.00005H9.77999C9.29999 6.52605 9.00499 7.22805 8.99999 7.99905C8.99999 9.65605 10.343 11.0001 12 11.0001H19.33C19.338 11.0001 19.347 11.0001 19.356 11.0001C21.377 11.0001 23.016 9.36105 23.016 7.34005C23.016 5.73505 21.982 4.37105 20.545 3.87705L20.52 3.87005ZM19.33 9.00005H12C11.448 9.00005 11 8.55205 11 8.00005C11 7.44805 11.448 7.00005 12 7.00005C12.552 7.00005 13 6.55205 13 6.00005C13 5.99005 13 5.97805 13 5.96605C13 4.30905 14.343 2.96605 16 2.96605C17.311 2.96605 18.425 3.80705 18.834 4.97905L18.841 5.00005C18.959 5.34705 19.254 5.60505 19.615 5.66905L19.621 5.67005C20.409 5.80405 21.001 6.48205 21.001 7.29705C21.001 7.30805 21.001 7.31905 21.001 7.33105V7.32905C21.001 8.25205 20.253 8.99905 19.331 8.99905L19.33 9.00005ZM19 13.0001C18.448 13.0001 18 13.4481 18 14.0001V17.0001C18 17.5521 17.552 18.0001 17 18.0001H14.74C14.341 16.9981 13.542 16.2291 12.545 15.8771L12.52 15.8691C11.701 14.1601 9.98399 13.0001 7.99699 13.0001C5.53599 13.0001 3.49099 14.7771 3.07499 17.1181L3.06999 17.1481C1.86199 17.5541 1.00699 18.6761 1.00699 19.9981C1.00699 21.6521 2.34699 22.9941 3.99999 22.9981H11.33C13.118 22.9981 14.607 21.7161 14.926 20.0211L14.93 19.9981H17C18.657 19.9981 20 18.6551 20 16.9981V13.9981C20 13.4461 19.552 12.9981 19 12.9981L18.998 12.9991L19 13.0001ZM11.33 21.0001H3.99999C3.44799 21.0001 2.99999 20.5521 2.99999 20.0001C2.99999 19.4481 3.44799 19.0001 3.99999 19.0001C4.55199 19.0001 4.99999 18.5521 4.99999 18.0001C4.99999 17.9901 4.99999 17.9781 4.99999 17.9661C4.99999 16.3091 6.34299 14.9661 7.99999 14.9661C9.31099 14.9661 10.426 15.8071 10.834 16.9791L10.84 17.0001C10.958 17.3471 11.252 17.6051 11.614 17.6691L11.62 17.6701C12.408 17.8041 13 18.4811 13 19.2971C13 19.3081 13 19.3201 13 19.3311V19.3291C13 20.2511 12.252 21.0001 11.33 21.0001Z"/></svg>

<svg xmlns="http://www.w3.org/2000/svg" width="24" height="24" fill="none"><path fill="currentColor" d="M20.52 3.87c-.824-1.694-2.534-2.841-4.51-2.841a5 5 0 0 0-4.557 2.94L11.44 4H7a3 3 0 0 0-3 3v4a1 1 0 0 0 2 0V7a1 1 0 0 1 1-1h2.78A3 3 0 0 0 9 8a3 3 0 0 0 3 3h7.356a3.66 3.66 0 0 0 1.189-7.123zM19.33 9H12a1 1 0 0 1 0-2 1 1 0 0 0 1-1v-.034a3 3 0 0 1 5.834-.987l.007.021c.118.347.413.605.774.67h.006c.788.134 1.38.812 1.38 1.627v.034-.002A1.67 1.67 0 0 1 19.331 9zM19 13a1 1 0 0 0-1 1v3a1 1 0 0 1-1 1h-2.26a3.69 3.69 0 0 0-2.195-2.123l-.025-.008C11.701 14.16 9.984 13 7.997 13a5 5 0 0 0-4.922 4.118l-.005.03a3.01 3.01 0 0 0-2.063 2.85 3 3 0 0 0 2.993 3h7.33a3.66 3.66 0 0 0 3.596-2.977l.004-.023H17a3 3 0 0 0 3-3v-3a1 1 0 0 0-1-1l-.002.001zm-7.67 8H4a1 1 0 0 1 0-2 1 1 0 0 0 1-1v-.034a3 3 0 0 1 5.834-.987l.006.021c.118.347.412.605.774.67h.006c.788.134 1.38.811 1.38 1.627v.034-.002c0 .922-.748 1.671-1.67 1.671"/></svg>
